X:1
T:St. Martin’s, CM
T:St. Martin’s, CM
T:William Tans’ur, 1740
T:Public Domain Courtesy of the Cyber Hymnal™
C:William Tans’ur, 1740
Z:Public Domain
Z:Courtesy of the Cyber Hymnal™
%%score ( 1 2 ) ( 3 4 )
L:1/8
Q:1/4=115
M:3/4
K:F
V:1 treble 
V:2 treble 
V:3 bass 
V:4 bass 
V:1
 [CF]2 | (F>G F2) C2 | (F>G A2) (A>B) | (c>B A2) [DF]2 | [EG]4 [CA]2 | (c>B A2) F2 | %6
 [DG]2 [CF]2 [CE]2 | [CF]4 (A>B) | [Fc]4 [Fd]2 | (c>B A2) [FA][EB] | c2 B2 [FA]2 | [EG]4 [Fc]2 | %12
 (d>c [EB]2) [FA]2 | ([DG]2 [CF]2) [CE]2 | [CF]4 |] %15
V:2
 x2 | D4 C2 | C4 C2 | C4 x2 | x6 | C4 x2 | x6 | x4 F2 | x6 | F4 x2 | (FCDE) x2 | x6 | F2 x4 | x6 | %14
 x4 |] %15
V:3
 [F,A,]2 | [B,,B,]4 [C,B,]2 | (A,>B, C2) (F,>G,) | (A,>G, F,2) [D,A,]2 | [C,C]4 F,2 | %5
 [E,G,]2 F,2 [A,,C]2 | [B,,B,]2 [C,A,]2 [C,G,]2 | [F,,F,A,]4 (F,>G,) | [F,A,]4 [F,B,]2 | %9
 (A,>G,) F,2 C2 | [A,C]2 G,2 (A,B,) | [C,C]4 [A,,F,]2 | F,2 [G,,G,]2 [A,,C]2 | %13
 [B,,B,]2 [C,A,]2 [C,G,]2 | [F,,A,]4 |] %15
V:4
 x2 | x6 | F,,4 F,2 | F,4 x2 | x4 F,2 | x2 F,2 x2 | x6 | x4 F,2 | x6 | F,4 (F,G,) | x2 G,2 F,2 | %11
 x6 | B,,>A,, x4 | x6 | x4 |] %15

